icon-themes/breeze_svg/cmd/lc_formfilternavigator.svg

<svg viewBox="0 0 24 24" xmlns="http://www.w3.org/2000/svg"><path d="m6 4-1 1v1 .3046875l5 7.0625005v3.632812.039062l3 2.226563v-1.246094l-2-1.484375v-2.535156-.951172-.048828h-.035156l-4.964844-7.0117188v-.9882812h12v.9882812l-4.964844 7.0117188h1.22461l4.740234-6.6953125v-1.3046875l-1-1zm1 2 2 3v-2l2-1z" fill="#4d4d4d"/><path d="m20 14-3 1c-1.047198 0-2 .9528-2 2l-1 3 3-1c1.047198 0 2-.9528 2-2zm-3 2c.523599 0 1 .4764 1 1s-.476401 1-1 1-1-.4764-1-1 .476401-1 1-1z" fill="#1d99f3"/></svg>

<svg xmlns="http://www.w3.org/2000/svg" viewBox="0 0 24 24">
 <path 
     style="fill:#4d4d4d" 
     d="M 6 4 L 5 5 L 5 6 L 5 6.3046875 L 10 13.367188 L 10 17 L 10 17.039062 L 13 19.265625 L 13 18.019531 L 11 16.535156 L 11 14 L 11 13.048828 L 11 13 L 10.964844 13 L 6 5.9882812 L 6 5 L 18 5 L 18 5.9882812 L 13.035156 13 L 14.259766 13 L 19 6.3046875 L 19 5 L 18 4 L 6 4 z M 7 6 L 9 9 L 9 7 L 11 6 L 7 6 z "
     />
 <path 
     style="fill:#1d99f3" 
     d="M 20 14 L 17 15 C 15.952802 15 15 15.9528 15 17 L 14 20 L 17 19 C 18.047198 19 19 18.0472 19 17 L 20 14 z M 17 16 C 17.523599 16 18 16.4764 18 17 C 18 17.5236 17.523599 18 17 18 C 16.476401 18 16 17.5236 16 17 C 16 16.4764 16.476401 16 17 16 z "
     />
 </svg>
